svgs/remarkable.svg

<svg xmlns="http://www.w3.org/2000/svg" viewBox="0 0 192 192"><path d="M65.985 141.806V48.969l46.163 92.837 46.163-92.837v92.837M33.689 109.338a21.74 21.74 0 0 1 7.168-14.878 21.737 21.737 0 0 1 15.557-5.541m-22.725.002v54.11" fill="none" stroke="#000" stroke-width="8" stroke-linecap="round" stroke-linejoin="round"/><path d="M166.905 16.5H25.095a8.6 8.6 0 0 0-7.444 4.297 8.6 8.6 0 0 0-1.151 4.298v141.81a8.6 8.6 0 0 0 4.297 7.444 8.6 8.6 0 0 0 4.298 1.151h141.81a8.599 8.599 0 0 0 6.078-2.517 8.599 8.599 0 0 0 2.517-6.078V25.095a8.599 8.599 0 0 0-2.517-6.078 8.599 8.599 0 0 0-6.078-2.517Z" fill="none" stroke="#000" stroke-width="8" stroke-linecap="round" stroke-linejoin="round"/></svg>

<svg
    xmlns="http://www.w3.org/2000/svg"
    viewBox="0 0 192 192"
    id="vector">
    <path
        id="path"
        d="M 65.985 141.806 L 65.985 48.969 L 112.148 141.806 L 158.311 48.969 L 158.311 141.806 M 33.689 109.338 C 34.027 103.631 36.605 98.281 40.857 94.46 C 45.11 90.639 50.703 88.647 56.414 88.919 M 33.689 88.921 L 33.689 143.031"
        fill="none"
        stroke="#000000"
        stroke-width="8"
        stroke-linecap="round"
        stroke-linejoin="round"/>
    <path
        id="path_1"
        d="M 166.905 16.5 L 25.095 16.5 C 23.586 16.5 22.104 16.897 20.797 17.651 C 19.491 18.406 18.406 19.491 17.651 20.797 C 16.897 22.104 16.5 23.586 16.5 25.095 L 16.5 166.905 C 16.5 168.414 16.897 169.896 17.651 171.203 C 18.406 172.509 19.491 173.594 20.797 174.349 C 22.104 175.103 23.586 175.5 25.095 175.5 L 166.905 175.5 C 169.184 175.5 171.372 174.594 172.983 172.983 C 174.594 171.372 175.5 169.184 175.5 166.905 L 175.5 25.095 C 175.5 22.816 174.594 20.628 172.983 19.017 C 171.372 17.406 169.184 16.5 166.905 16.5 Z"
        fill="none"
        stroke="#000000"
        stroke-width="8"
        stroke-linecap="round"
        stroke-linejoin="round"/>
</svg>
